X:1
T:Peterborough (Harrison), CM
T:Peterborough (Harrison), CM
T:Ralph Harrison, 1786
T:Public Domain Courtesy of the Cyber Hymnal™
C:Ralph Harrison, 1786
Z:Public Domain
Z:Courtesy of the Cyber Hymnal™
%%score ( 1 2 ) ( 3 4 )
L:1/8
Q:1/4=125
M:4/4
K:G
V:1 treble 
V:2 treble 
V:3 bass 
V:4 bass 
V:1
 [DG]4 | [DB]2 [DB]2 [Ec]2 [Ec]2 | B4 [FA]4 | [DG]8 | [DB]4 [Fd]2 [Gd]2 | [Gc]4 [GB]4 | %6
 [FA]4 [GB]4 | [FA]2 [DA]2 [DB]2 [EG]2 | c4 [DB]4 | [DA]4 [FA]4 | (B3 A B2) [Dd]2 | (c2 B2) [FA]4 | %12
 G4 |] %13
V:2
 x4 | x8 | (D2 G2) x4 | x8 | x8 | x8 | x8 | x8 | (E2 F2) x4 | x8 | G6 x2 | E4 x4 | G4 |] %13
V:3
 [G,B,]4 | G,2 G,2 [C,G,]2 [C,G,]2 | [D,G,]4 [D,C]4 | [G,,B,]8 | G,4 [D,A,]2 [G,B,]2 | %5
 [C,E]4 [G,,D]4 | [D,D]4 [G,D]4 | [D,D]2 [D,F,]2 G,2 [E,G,]2 | (G,2 A,2) (B,2 C2) | %9
 [D,F,]4 [D,D]4 | [G,D]6 [B,,G,]2 | [C,G,]4 (D2 C2) | [G,,B,]4 |] %13
V:4
 x4 | G,2 G,2 x4 | x8 | x8 | G,4 x4 | x8 | x8 | x4 G,2 x2 | C,4 G,,4 | x8 | x8 | x4 D,4 | x4 |] %13

